!!! OTL: Berkowitz351
!!! Chapter: 1
!!! Section: III
!!! Page: 86
!!! Mode: 
!!! Encoder: DJB
**kern
*staff1
*I"Piano
=1-
*clefG2
*k[b-]
*F:
*met(c)
*M4/4
16a\LL
16b-\
16cc\
16dd\JJ
16cc/LL
16b-/
16a/
16g/JJ
16f/LL
16g/
16a/
16b-/JJ
16a/LL
16g/
16f/
16e/JJ
=2
16d/LL
16f/
16c/
16f/JJ
16d/LL
16f/
16c/
16f/JJ
16e/LL
16f/
16g/
16a/JJ
8g/
8r
=3
16e/LL
16f/
16g/
16e/JJ
16d/LL
16f/
16a/
16d/JJ
16c#/LL
16d/
16e/
16g/JJ
16f/LL
16e/J
8f/J
=4
!!linebreak:original
16e/LL
16f/
16g/
16b-/JJ
16a/LL
16g/
16a/
16f/JJ
16e/LL
16f/
16g/
16b-/JJ
16a/LL
16g/
16f/
16e/JJ
=5
16d/LL
16f/
16e/
16g/JJ
16f/LL
16a/
16g/
16b-/JJ
16a/LL
16g/
16a/
16f/JJ
16cc\
16r
16b-/LL
16g/JJ
=6
16a/LL
16cc/
16b-/
16g/JJ
16a/LL
16f/
16g/
16e/JJ
16f/LL
16e/
16f/
16e/JJ
16f/LL
16e/
16f/
16e/JJ
=7
!!linebreak:original
16f/LL
16e/
16f/
16e/JJ
8f/
8r
2r
==
*-
